src/icons/svg/gitlab.svg

<?xml version="1.0"?><svg xmlns="http://www.w3.org/2000/svg" width="40" height="40" viewBox="0 0 40 40"><path  d="m2.3 15.8l17.7 22.6-19.4-14q-0.4-0.3-0.5-0.8t0-1l2.2-6.8z m10.3 0h14.8l-7.4 22.6z m-4.4-13.7l4.4 13.7h-10.3l4.4-13.7q0.2-0.5 0.8-0.5t0.7 0.5z m29.5 13.7l2.2 6.8q0.2 0.5 0 1t-0.5 0.8l-19.4 14 17.7-22.6z m0 0h-10.3l4.4-13.7q0.2-0.5 0.7-0.5t0.8 0.5z"></path></svg>

<svg xmlns="http://www.w3.org/2000/svg" width="40" height="40" viewBox="0 0 40 40"><path d="M2.3 15.8L20 38.4.6 24.4q-.4-.3-.5-.8t0-1l2.2-6.8zm10.3 0h14.8L20 38.4zM8.2 2.1l4.4 13.7H2.3L6.7 2.1q.2-.5.8-.5t.7.5zm29.5 13.7l2.2 6.8q.2.5 0 1t-.5.8L20 38.4l17.7-22.6zm0 0H27.4l4.4-13.7q.2-.5.7-.5t.8.5z"/></svg>
